svgs/thin/hard-drive.svg

<svg xmlns="http://www.w3.org/2000/svg" viewBox="0 0 512 512"><!-- Font Awesome Pro 6.0.0-alpha2 by @fontawesome - https://fontawesome.com License - https://fontawesome.com/license (Commercial License) --><path d="M448 32H64C28.652 32 0 60.652 0 96V416C0 451.348 28.652 480 64 480H448C483.348 480 512 451.348 512 416V96C512 60.652 483.348 32 448 32ZM496 416C496 442.469 474.469 464 448 464H64C37.531 464 16 442.469 16 416V352C16 325.531 37.531 304 64 304H448C474.469 304 496 325.531 496 352V416ZM496 310.07C484.27 296.652 467.227 288 448 288H64C44.773 288 27.73 296.652 16 310.07V96C16 69.531 37.531 48 64 48H448C474.469 48 496 69.531 496 96V310.07ZM320 352C302.328 352 288 366.328 288 384S302.328 416 320 416S352 401.672 352 384S337.672 352 320 352ZM320 400C311.176 400 304 392.824 304 384S311.176 368 320 368S336 375.176 336 384S328.824 400 320 400ZM416 352C398.328 352 384 366.328 384 384S398.328 416 416 416S448 401.672 448 384S433.672 352 416 352ZM416 400C407.176 400 400 392.824 400 384S407.176 368 416 368S432 375.176 432 384S424.824 400 416 400Z"/></svg>

<svg xmlns="http://www.w3.org/2000/svg" viewBox="0 0 512 512"><!--! Font Awesome Pro 6.3.0 by @fontawesome - https://fontawesome.com License - https://fontawesome.com/license (Commercial License) Copyright 2023 Fonticons, Inc. --><path d="M448 32h-384c-35.35 0-64 28.65-64 64v320c0 35.35 28.65 64 64 64h384c35.35 0 64-28.65 64-64V96C512 60.65 483.3 32 448 32zM496 416c0 26.47-21.53 48-48 48H64c-26.47 0-48-21.53-48-48v-64c0-26.47 21.53-48 47.1-48h384c26.47 0 48 21.53 48 48V416zM496 310.1C484.3 296.7 467.2 288 448 288h-384c-19.23 0-36.27 8.652-47.1 22.07V96c0-26.47 21.53-48 48-48h383.1c26.47 0 48 21.53 48 48V310.1zM320 352c-17.67 0-32 14.33-32 32s14.33 32 32 32s32-14.33 32-32S337.7 352 320 352zM320 400c-8.824 0-16-7.176-16-16s7.176-16 16-16s16 7.176 16 16S328.8 400 320 400zM416 352c-17.67 0-32 14.33-32 32s14.33 32 32 32s32-14.33 32-32S433.7 352 416 352zM416 400c-8.824 0-16-7.176-16-16s7.176-16 16-16s16 7.176 16 16S424.8 400 416 400z"/></svg>
